src/actions/24/office-chart-line-forecast.svg

<svg xmlns="http://www.w3.org/2000/svg" version="1.1" viewBox="0 0 24 24" width="24" height="24">
  <defs>
    <style id="current-color-scheme" type="text/css">.ColorScheme-Text {
        color:#363636;
      }
      .ColorScheme-Highlight {
        color:#3daee9;
      }</style>
  </defs>
  <g transform="translate(1,1)">
    <path class="ColorScheme-Text" d="m4 3v14h-1v1h1v1h1v-1h14v-1h-14v-2h2.7070312l2.5-2.5-0.70703125-0.70703125-2.2070312 2.2070312h-2.2929688v-11h-1zm13.5 0.79296875-2.7070312 2.7070312 0.70703125 0.70703125 2.7070312-2.7070312-0.70703125-0.70703125zm-4 4-2.7070312 2.7070312 0.70703125 0.70703125 2.7070312-2.7070312-0.70703125-0.70703125z" fill="currentColor"/>
  </g>
</svg>

<svg xmlns="http://www.w3.org/2000/svg" width="24" height="24">
    <defs>
        <style id="current-color-scheme" type="text/css">
            .ColorScheme-Highlight{color:#a0b6cb}
        </style>
    </defs>
    <path fill="currentColor" d="M4 3v14H3v1h1v1h1v-1h14v-1H5v-2h2.707l2.5-2.5-.707-.707L7.293 14H5V3H4zm13.5.793L14.793 6.5l.707.707L18.207 4.5l-.707-.707zm-4 4L10.793 10.5l.707.707L14.207 8.5l-.707-.707z" style="color:#050505;opacity:.7" transform="translate(1 1)"/>
</svg>
